src/assets/Cryptologos/Currency=btc.svg

<svg width="26" height="26" viewBox="0 0 26 26" fill="none" xmlns="http://www.w3.org/2000/svg">
<path opacity="0.2" d="M25.61 16.145C23.8737 23.1094 16.8196 27.3474 9.85441 25.6111C2.8925 23.8747 -1.34591 16.8206 0.390812 9.85668C2.12631 2.89152 9.18003 -1.34729 16.1432 0.389023C23.1079 2.12534 27.3459 9.18027 25.6096 16.145H25.61Z" fill="#F7931A"/>
<path fill-rule="evenodd" clip-rule="evenodd" d="M16.9153 11.4897C17.0905 10.3162 16.1971 9.68539 14.9754 9.26456L15.3717 7.67493L14.4038 7.43379L14.0179 8.98152C13.7638 8.91814 13.5026 8.85833 13.243 8.79908L13.6316 7.24114L12.6645 7L12.2679 8.58908C12.0574 8.54112 11.8507 8.49372 11.65 8.44384L11.6511 8.43888L10.3167 8.10568L10.0593 9.13916C10.0593 9.13916 10.7772 9.30369 10.7621 9.31389C11.154 9.41172 11.2251 9.67106 11.2129 9.87665L10.7615 11.6876C10.7885 11.6945 10.8235 11.7044 10.8621 11.7198L10.7601 11.6945L10.1271 14.2313C10.0792 14.3504 9.95762 14.529 9.68368 14.4612C9.69332 14.4752 8.98036 14.2856 8.98036 14.2856L8.5 15.3935L9.75947 15.7074C9.90165 15.743 10.0421 15.7797 10.181 15.8159C10.271 15.8394 10.3603 15.8627 10.449 15.8854L10.0486 17.4935L11.0151 17.7347L11.4119 16.1439C11.6757 16.2156 11.932 16.2817 12.1828 16.344L11.7876 17.9273L12.7552 18.1685L13.1556 16.5637C14.8056 16.8759 16.0466 16.75 16.5683 15.2579C16.9891 14.0563 16.5476 13.3632 15.6795 12.9109C16.3117 12.7646 16.7879 12.3487 16.915 11.4897H16.9153ZM14.7042 14.5899C14.4295 15.6927 12.7029 15.2364 11.9136 15.0278C11.8429 15.0091 11.7798 14.9924 11.7258 14.979L12.2572 12.8489C12.3231 12.8654 12.4036 12.8835 12.4948 12.9039L12.4949 12.9039C13.3114 13.0872 14.9848 13.4627 14.7045 14.5899H14.7042ZM12.659 11.9155C13.3176 12.0912 14.7531 12.4742 15.0032 11.4723C15.2589 10.4474 13.8629 10.1385 13.1812 9.98765C13.1046 9.97069 13.0369 9.95573 12.9817 9.94197L12.5 11.8739C12.5456 11.8852 12.5991 11.8995 12.659 11.9155Z" fill="#F7931A"/>
</svg>

<svg width="26" height="26" fill="none" xmlns="http://www.w3.org/2000/svg"><path opacity=".2" d="M25.61 16.145c-1.736 6.964-8.79 11.202-15.756 9.466-6.961-1.736-11.2-8.79-9.463-15.754C2.126 2.892 9.18-1.347 16.143.389c6.965 1.736 11.203 8.791 9.467 15.756z" fill="#F7931A"/><path fill-rule="evenodd" clip-rule="evenodd" d="M16.915 11.49c.175-1.174-.718-1.805-1.94-2.225l.397-1.59-.968-.241-.386 1.548a40.006 40.006 0 0 0-.775-.183l.389-1.558L12.665 7l-.397 1.59c-.21-.049-.417-.096-.618-.146l.001-.005-1.334-.333-.258 1.033s.718.165.703.175c.392.098.463.357.45.563l-.45 1.81a.809.809 0 0 1 .1.033l-.102-.026-.633 2.537c-.048.12-.17.298-.443.23.01.014-.704-.175-.704-.175l-.48 1.107 1.26.314.421.109.268.07-.4 1.608.966.24.397-1.59c.264.072.52.138.77.2l-.394 1.583.967.242.4-1.605c1.65.312 2.892.186 3.413-1.306.421-1.202-.02-1.895-.889-2.347.633-.146 1.109-.562 1.236-1.421zm-2.21 3.1c-.275 1.103-2.002.646-2.791.438-.071-.019-.134-.036-.188-.049l.531-2.13.238.055c.816.183 2.49.559 2.21 1.686zm-2.046-2.675c.659.176 2.094.56 2.344-.443.256-1.025-1.14-1.333-1.822-1.484-.076-.017-.144-.032-.2-.046l-.481 1.932.159.041z" fill="#F7931A"/></svg>
